X:1
T:They That Overcome
T:They That Overcome
T:William Howard Doane
T:Frances Jane (Fanny) Crosby, 1905
T:Public Domain Courtesy of the Cyber Hymnal™
T:Public Domain Courtesy of the Cyber Hymnal™
C:William Howard Doane
Z:Public Domain
Z:Courtesy of the Cyber Hymnal™
%%score ( 1 2 ) ( 3 4 )
L:1/8
Q:1/4=110
M:4/4
K:D
V:1 treble 
V:2 treble 
V:3 bass 
V:4 bass 
V:1
 [DF]2 [FA]2 [GB][FA][DF]D | [DF]2 [CE]2 [DF]4 | [DG]2 [GB]2 [GB][FA][FA][DF] | [DA]2 [DF]2 [CE]4 | %4
w: 1.~O- ver- com- ing e- vil|day by day,|This our war- fare on the|Christ- ian way;|
w: 2.~Tho’ we suf- fer trib- u-|la- tion here,|Tho’ our cross- es oft may|seem se- vere,|
w: 3.~O- ver- com- ing, O my|soul, a- rise,|O- ver- com- ing, thou must|reach the skies;|
 [EG]2 [FA][EG] [DF]2 [FA]2 | [GB]2 [Ac][GB] [FA]4 | [Fd]2 [DA][E^A] [DB]2 [Dd][DB] | %7
w: Yet un- to those that|faith- ful en- dure,|God has de- clared that His|
w: Think of the joy when|tri- als are past,|Strong in the Lord we shall|
w: Still jour- ney on, and|still o- ver- come,|Rest by and by with the|
 [DA][DF] [CE]2 D4 ||"^Refrain" [Bd]2 ([Ac][GB]) [FA][DF] [FA]2 | [Gd]2 [Ac][GB] [FA]4 | %10
w: prom- ise is sure.|||
w: con- quer at last.|They that * o- ver- come,|thus sa- ith He,|
w: Sav- ior at home.|||
 [DF]2 [EA]2 [E^G][EG] [EA]2 | [Ec][Ec] [DB]2 (A2 G2) | [DF]2 [FA]2 [GB][FA][DF]D | %13
w: |||
w: They that o- ver- come,|bless- èd shall be; *|They that o- ver- come the|
w: |||
 [Gd]2 ([Ac][GB]) [FA]4 | [Fd]2 [DA][E^A] [DB]2 [Dd][DB] | [FA][Fd] [Gc]2 [Fd]4 |] %16
w: |||
w: world and * sin,|Life and a crown in His|king- dom shall win.|
w: |||
V:2
 x7 D | x8 | x8 | x8 | x8 | x8 | x8 | x4 D4 || x8 | x8 | x8 | x4 C4 | x7 D | x8 | x8 | x8 |] %16
V:3
 [D,A,]2 [D,D]2 [D,D][D,D][D,A,][F,A,] | A,2 [A,,A,]2 [D,A,]4 | %2
w: ~ ~ ~ ~ ~ ~|~ ~ ~|
 [G,B,]2 [G,D]2 [D,D][D,D][D,D][D,A,] | [F,A,]2 [D,A,]2 [A,,A,]4 | %4
w: ~ ~ ~ ~ ~ ~|~ ~ ~|
 [A,,A,]2 [B,,A,][C,A,] [D,A,]2 [D,D]2 | [G,D]2 [G,D][G,D] [D,D]4 | %6
w: ~ ~ ~ ~ ~|~ ~ ~ ~|
 [D,A,]2 [D,F,][C,F,] [B,,F,]2 [G,,B,][G,,G,] | [A,,F,][A,,A,] [A,,G,]2 [D,F,]4 || %8
w: ~ ~ ~ ~ ~ ~|~ ~ ~ ~|
 [G,D]2 z2 [D,D][D,A,] [D,D]2 | [G,,B,]2 [G,,D][G,,D] [D,D]4 | %10
w: They o- ver- come,|thus, thus saith He,|
 [F,A,]2 [C,A,]2 [B,,D][B,,D] [A,,C]2 | [E,A,][E,A,] [E,^G,]2 [A,,A,]4 | %12
w: ||
 [D,A,]2 [D,D]2 [D,D][D,D][D,A,][F,A,] | [G,B,]2 [G,D]2 [D,D]4 | %14
w: ||
 [D,A,]2 [D,F,][C,F,] [B,,F,]2 [G,,B,][G,,G,] | [A,,F,][A,,A,] [A,,A,]2 [D,A,]4 |] %16
w: ||
V:4
 x8 | A,2 x6 | x8 | x8 | x8 | x8 | x8 | x8 || x8 | x8 | x8 | x8 | x8 | x8 | x8 | x8 |] %16

